li/gui-plugin-captionit.svg

<svg aria-hidden="true" xmlns="http://www.w3.org/2000/svg" viewBox="0 0 14 14" height="1em" width="1em">
  <path d="M8.781 11.11 7 11.469l.36-1.781 1.42 1.422ZM7.713 9.334l1.422 1.423L13 6.892l-1.422-1.423-3.865 3.865ZM6.258 9.5l2.255-2.38L7.5 5.5l-1.26 2L5 6.52 3 9.5h3.258ZM4.5 5.25a.75.75 0 1 0-1.5 0 .75.75 0 0 0 1.5 0Zm1.676 5.25H2v-7h9v1.156h1V2.5H1v9h4.984l.192-1z"/>
</svg>

<svg role="img" focusable="false" aria-hidden="true" xmlns="http://www.w3.org/2000/svg" viewBox="0 0 14 14" height="1em" width="1em">
  <path d="M 8.781,11.11 7,11.469 7.3595,9.688 8.781,11.11 Z M 7.713,9.334 9.135,10.7565 13,6.8915 11.5775,5.469 7.713,9.334 Z M 6.258,9.5 8.513,7.12 7.5,5.5 6.24,7.5 5,6.52 3,9.5 6.258,9.5 Z M 4.5,5.25 C 4.5,4.836 4.164,4.5 3.75,4.5 3.336,4.5 3,4.836 3,5.25 3,5.6645 3.336,6 3.75,6 4.164,6 4.5,5.6645 4.5,5.25 Z m 1.676,5.25 -4.176,0 0,-7 9,0 0,1.156 1,0 0,-2.156 -11,0 0,9 4.9845,0 0.1915,-1 z"/>
</svg>
